svg/black/kmd.svg

<svg xmlns="http://www.w3.org/2000/svg" width="32" height="32" viewBox="0 0 32 32">
  <path fill-rule="evenodd" d="M16,32 C7.163444,32 0,24.836556 0,16 C0,7.163444 7.163444,0 16,0 C24.836556,0 32,7.163444 32,16 C32,24.836556 24.836556,32 16,32 Z M16,5 L8.51811852,8.20652064 C8.29459744,8.30231538 8.1173589,8.48166384 8.02421589,8.70630285 L5,16 L8.0227452,23.3790544 C8.11668687,23.6083826 8.29807769,23.7908657 8.52683779,23.8861824 L16,27 L23.4731622,23.8861824 C23.7019223,23.7908657 23.8833131,23.6083826 23.9772548,23.3790544 L27,16 L23.9757841,8.70630285 C23.8826411,8.48166384 23.7054026,8.30231538 23.4818815,8.20652064 L16,5 Z M16,9.47457627 L20.5677966,11.4322034 L22.5254237,16 L20.5677966,20.5677966 L16,22.5254237 L11.4322034,20.5677966 L9.47457627,16 L11.4322034,11.4322034 L16,9.47457627 Z M16,11.4322034 L12.7372881,12.7372881 L11.4322034,16 L12.7372881,19.2627119 L16,20.5677966 L19.2627119,19.2627119 L20.5677966,16 L19.2627119,12.7372881 L16,11.4322034 Z"/>
</svg>

<svg xmlns="http://www.w3.org/2000/svg" width="32" height="32"><path fill-rule="evenodd" d="M16 32C7.163 32 0 24.837 0 16S7.163 0 16 0s16 7.163 16 16-7.163 16-16 16zm0-27L8.518 8.207a.932.932 0 0 0-.494.5L5 16l3.023 7.38c.094.228.275.41.504.506L16 27l7.473-3.114a.932.932 0 0 0 .504-.507L27 16l-3.024-7.294a.932.932 0 0 0-.494-.5L16 5zm0 4.475l4.568 1.957L22.525 16l-1.957 4.568L16 22.525l-4.568-1.957L9.475 16l1.957-4.568L16 9.475zm0 1.957l-3.263 1.305L11.432 16l1.305 3.263L16 20.568l3.263-1.305L20.568 16l-1.305-3.263L16 11.432z"/></svg>
